X:1
T:Burns' Punch Bowl
T:Burns' Punch Bowl
T:Nathaniel Gow (1763-1831)
C:Nathaniel Gow (1763-1831)
L:1/8
M:4/4
K:E
V:1 treble 
V:1
 g/>f/ | eE BG TF>EFG | eE BG e2 ef/g/ |{fg} a>g{ef} g>e fF F G/F/ | EG/B/ (eG){G} B2 B :| g/f/ | %6
 e>fagf/e/ c(d/e/) fg | e>f a/g/f/g/ (e/f/g/a/ b/g/a/f/) | e>f{a} gf/e/ c(d/e/) fg | %9
 e>Bc>G{G} e2 e>f | e>f{a} gf/e/ (c/e/)d/(e/ f/)g/a/f/ | %11
 (e/g/)(f/a/) (g/b/)(a/c'/) (b/g/)(a/f/) (g/e/)(f/d/) |{d} e>c{c} BA/G/ TF>GAc | %13
 B(c/d/ e>)G{G} B2 B || %14

